X: 1111
T: The Ewe wi' the Croocke'd Horn
%R: air, strathspey
B: Niel Gow & Sons "A Collection of Strathspey Reels, etc." v.1 p.11 #1
Z: 2022 John Chambers <jc:trillian.mit.edu>
N: Note the 5 2-bar phrases, making for 4- & 6-bar strains.
M: C
L: 1/8
Q: "Slow"
K: Gdor
% - - - - - - - - - -
% Voice 1 reformatted for 2 2-bar lines, for compactness and proofreading.
V: 1 staves=2
|:\
DG-G>A TF>GAF | DG-GA/B/ c<AB<G | A>B{AB}c>B TA>GFC | DG-G>B A<F G2 :: Gg-g>a f>gaf |
dg-g>a f<ag2 | dg-g>a (b/a/g) (a/g/f) | d<gb>g a<fg2 | f>gf<d cBAF | (G/A/B/c/ d)>B c>AG2 :|
% - - - - - - - - - -
% Voice 2 preserves the staff layout in the book.
V: 2 clef=bass middle=d
|:\
G2G2 F2F2 | G2G2 G2G2 | G2G2 f2f2 | g2g2 e2G2 :: g2g2 f2f2 |
g2g2 d2G2 | g2g2 g2g2 | g2g2 d2g2 | f2f2 c2c2 | G2d2 d2G2 :|


